X:529
%%etbk:tnset id:264,pos:6,rep:3x,ant:
%%etbk:pldat 2016-06-22T16:35,2016-06-20T18:09,2016-06-18T16:26,2016-03-05T14:06,2015-06-26T17:38,2015-06-22T18:14,2014-08-21T18:41,2014-08-20T18:15,2014-06-25T15:34,2014-06-11T16:29
T: The Four Poster Bed
Z: Piano Box Version by Martin Fleischmann
H: Created 2013-02-19 /  Last Modified 2014-06-11
R: polka
M: 4/4
L: 1/8
K: Dmaj
|: "D"!3!f2f2 e2fg | !5!agfe !1!d!2!c!1!de | !3!f2f2 e2d2 | !5!a4 !1!d4 :|
|: "A"!2!e2e2 e3f | !2!e!1!d!3!cB !1!A2 [A2e] | z2 [A2e] z2 [A2e] | z2 [A2e] z2 [A2e] |
"A"e2e2 e3f | edcB A2!3!fg | a3g f2e2 | "D"!1!d8 :||


